!!!COM: Henri Reber
!!!CNT: Francais
!!!TXO: Francais
!!!OTL: Rosette
!!!LYR: Abbe/ de l'Ecluse
!!!ODT: 1863/
!!!ENC: Jacob Pegg
!!!YOR: Romantic French Song 1830-1870, David Tunley, ed., New York: Garland Publishing, Inc., 1995, vol. 3
!!NB: Vocal melody and text only encoded.
!!NB: First instance of melodic material only encoded.
**kern	**silbe
*clef G2	*
*k[f#]	*
*M2/4	*
=4	=4
4r	.
8r	.
{8dd	{Ro-
=5	=5
8dd	-set-
8b	-te
8dd	ver-
8dd	-meil-
=6	=6
4dd	-let-
8b	-te,
8b	Ro-
=7	=7
8b	-set-
8g	-te,
8d	mon
(16.dd	bon-
32cc)	|
=8	=8
4a}	-heur!}
8r	.
{8a	{sou-
=9	=9
8a	-ci
8g#	ni
8a	pei-
16.g#	-ne
32g#	cru-
=10	=10
(8a	-el-
8a#)	|
8b	-le,
16a#	ne
16a#	pour-
=11	=11
8b	-aient
8cc#	ma
8dd	tou-
8dd#	-te
=12	=12
(8ee	bel-
8dd#)	|
8ddn	-le,
16.cc	t'ar-
32cc	-ra-
=13	=13
4b	-cher
(16.b	de
32a)	|
(16.b	mon
32a)	|
=14	=14
4g}	coeur.}
4r	.
*-	*-
